X:1
T:Ragion'e ben ch'alcuna volt'io canti
T:Jacquet de Berchem c.1505-1567
T:Ragion'e ben ch'alcuna volt'io canti
T:This work is licensed under CC0: creativecommons.org/publicdomain/zero/1.0/
T:Transcribed from 1539 Gardano edition of Arcadelt's Il primo libro di madrigali a 4 Original note values halved
T:This work is licensed under CC0: creativecommons.org/publicdomain/zero/1.0/
T:This work is licensed under CC0: creativecommons.org/publicdomain/zero/1.0/
T:This work is licensed under CC0: creativecommons.org/publicdomain/zero/1.0/
T:This work is licensed under CC0: creativecommons.org/publicdomain/zero/1.0/
T:This work is licensed under CC0: creativecommons.org/publicdomain/zero/1.0/
T:This work is licensed under CC0: creativecommons.org/publicdomain/zero/1.0/
C:Jacquet de Berchem
C:c.1505-1567
Z:Anonymous
Z:This work is licensed under CC0: creativecommons.org/publicdomain/zero/1.0/
%%score [ 1 2 3 4 ]
L:1/8
M:4/4
K:C
V:1 treble nm="Piano" snm="Pno."
V:2 treble transpose=-12 nm="Piano" snm="Pno."
V:3 treble transpose=-12 nm="Piano" snm="Pno."
V:4 treble nm="Piano" snm="Pno."
V:1
"^Cantus" x8 |"^Instrument change" F8 | A4 _B4 | G4 z2 G2 | G2 G2 c4- | c2 _B2 A2 G2 | F8 | %7
w: |Ra-|gio- n'e|ben ch'al-|cu- na vol-|* t'io can- *||
 E4 z2 E2 | E2 E2 z F2 F | EE G2 G2 G2 | A2 A2 _B3 B | G2 A2 G2 F2- | F2 E2 F4 | z2 c2 A2 c2 | %14
w: ti pe-|ro c'ho sos- pi-|ra- to pe- ro c'ho|sos- pi- ra- to|si gran tem- *|* * po|che mai non|
 _B2 A2 G2 G2 | A2 A2 A2 _B2- | BA A4 G2 | A2 A2 G2 F2 | E2 CD EFGE | F2 E2 D4 | E4 z2 E2 | F6 F2 | %22
w: in- co- min- cio|as- sai per tem-||po per ac- que-|tar col _ _ _ _ _|_ _ ri-|so i|do- lor|
 E2 E2 z2 G2 | G2 A2 F2 G2 | A3 A G2 E2 | F2 E2 z4 | z4 z2 F2 | G2 A2 F2 G2 | A3 A G2 E2 | %29
w: tan- ti e|s'io po- tes- si|far ch'a gli\_oc- chi|san- ti|e|s'io po- tes- si|far ch'a gli\_oc- chi|
 F2 D2 C4 | z8 | G4 G2 E2 | F4 E4 | z2 C2 D2 E2 | F2 G2 E2 E2 | z2 C2 D2 E2 | F2 G2 E2 E2 | %37
w: san- * ti||ch'a gli\_oc- chi|san- ti|por- ges- s'al-|cun di- let- to|qual- che dol-|ce mio det- to|
 G4 G2 G2 | A4 G2 _B2- | B2 A2 G2 E2 | F4 E2 C2 | D2 F2 F2 E2 | F4 z2 G2 | A2 F2 G2 G2 | F4 z2 C2 | %45
w: O me be-|a- to so-|* pra gli\_al- tri\_a-|man- ti ma|piu quan- d'io di-|ro, ma|piu quan- d'io di-|ro, ma|
 D2 F2 F2 E2 | F4 z2 G2 | A2 F2 G2 G2 | F3 G A2 _B2- | B2 A4 G2 | A4 z2 c2 | _B2 A2 G2 B2 | %52
w: piu quan- d'io di-|ro, ma|piu quan- d'io di-|ro sen- za men-|* ti- *|re don-|na mi pre- ga|
 A2 G2 F2 A2 | G2 F4 E2 | F4 z2 c2 | _B2 A2 G2 B2 | A2 G2 F2 A2 | G2 F4 ED | E4 F4- | F8- | F8- | %61
w: per ch'io vo- glia|di- * *|re, don-|na mi pre- ga|per ch'io vo- glia|di- * * *|* re.|_||
 F8 |] %62
w: |
V:2
"^Alto" x8 |"^Instrument change" C,8 | F,4 F,4 | E,8- | E,4 C,4 | C,2 C,2 F,4- | F,2 E,2 D,4 | %7
w: |Ra-|gio- n'e|ben|_ ch'al-|cu- na vol-|* t'io can-|
 C,4 z2 C,2 | C,2 C,2 z A,,2 _B,, | C,C, E,2 D,2 E,2 | E,2 E,2 F,4 | E,4 D,2 D,2 | C,4 C,4- | %13
w: ti pe-|ro c'ho sos- pi-|ra- to pe- ro c'ho|sos- pi- ra-|to si gran|tem- po|
 C,4 z2 F,2 | D,2 F,2 E,2 D,2 | C,2 C,2 F,3 D, | E,2 F,2 D,4 | E,2 F,2 E,2 D,2 | C,2 C,3 D,E,C, | %19
w: _ che|mai non in- co-|min- cio as- *|sai per tem-|po per ac- que-|tar col _ _ _|
 D,2 C,4"^ยง" B,,2 | C,4 z2 C,2 | D,6 D,2 | C,4 C,4 | C,2 C,2 D,2 _B,,2 | C,2 D,4 C,2 | %25
w: ri- * *|so i|do- lor|tan- ti|e s'io po- tes-|si far ch'a|
 D,2 C,4 F,2- | F,2 E,2 F,2 z F,, | _B,,2 C,2 D,2 B,,2 | A,,2 C,2 _B,,2 C,2- | C,2 _B,,2 C,2 F,,2 | %30
w: gli\_oc- chi san-|* * ti e|s'io po- tes- si|far ch'a gli\_oc- chi|_ san- ti ch'a\_e|
 A,,2 C,2 A,,2 _B,,2 | C,3 C, _B,,2 G,,2 | F,,4 G,,4 | z2 C,2 _B,,2 C,2 | D,2 D,2 C,2 C,2 | %35
w: s'io po- tes- si|far ch'a gli\_oc- chi|san- ti|por- ges- s'al-|cun di- let- to|
 z2 C,2 _B,,2 C,2 | D,2 D,2 C,2 C,2 | z2 E,2 E,2 E,2 | F,4 E,2 F,2- | F,2 F,,2 G,,2 C,2- | %40
w: qual- che dol-|ce mio det- to|O me be-|a- to so-|* pra gli\_al- tri\_a-|
 C,2"^ยง" B,,2 C,4 | z2 C,2 D,2 _B,,2 | C,2 C,2 _B,,4 | z2 F,2 F,2 E,2 | F,2 D,2 C,4 | %45
w: * man- ti|ma piu quan-|d'io di- ro,|ma piu quan-|d'io di- ro,|
 z2 _B,,2 D,2 B,,2 | C,2 C,2 _B,,4 | z2 F,2 F,2 E,2 | F,2 D,2 C,2 F,2 | F,2 F,2 D,3 E, | F,4 z4 | %51
w: ma piu quan-|d'io di- ro,|ma piu quan-|d'io di- ro sen-|za men- ti- *|re|
 z2 F,2 E,2 D,2 | C,2 E,2 D,2 C,2 | _B,,2 D,2 C,4 | C,4 z4 | z2 F,2 E,2 D,2 | C,2 E,2 D,2 C,2 | %57
w: don- na mi|pre- ga per ch'io|vo- glia di-|re,|don- na mi|pre- ga per ch'io|
 _B,,2 D,2 C,4 | C,4 A,,4 | D,4 C,2 C,2 | D,4 C,4- | C,8 |] %62
w: vo- glia di-|re, per|ch'io vo- glia|di- re.|_|
V:3
"^Tenor" x8 |"^Instrument change" A,,8 | D,4 D,4 | C,2 G,,2 G,,2 G,,2 | C,6 _B,,2 | %5
w: |Ra-|gio- n'e|ben ch'al- cu- na|vol- t'io|
 A,,2 G,,2 F,,2 z F,, | F,,2 F,,2 _B,,2 B,,2 | G,,2 G,,2 z2 G,,2 | G,,2 G,,2 z F,,2 F,, | %9
w: can- * ti ch'al-|cu- na vol- t'io|can- ti pe-|ro c'ho sos- pi-|
 G,,G,, C,2 _B,,2 C,2 | z C,2 A,, D,3 D, | C,2 C,2 _B,,3 A,, | G,,4 F,,4- | F,,4 z2 F,,2 | %14
w: ra- to pe- ro c'ho|sos- pi- ra- to|si gran tem- *|* po|_ che|
 G,,2 F,,2 C,2 _B,,2 | A,,2 A,,2 D,3 _B,, | C,2 D,2 _B,,4 | A,,2 z F,, C,2 D,2 | A,,4 C,4 | %19
w: mai non in- co-|min- cio as- *|sai per tem-|po per ac- que-|tar col|
 _B,,2 C,2 G,,4 | C,,4 G,,4 | _B,,6 B,,2 | G,,4 G,,4 | z8 | z2 F,,2 G,,2 A,,2 | F,,2 G,,2 A,,4 | %26
w: ri- * *|so i|do- lor|tan- ti||e s'io po-|tes- si far|
 G,,4 F,,2 A,,2 | G,,2 F,,4 E,,2 | F,,4 z4 | z4 z2 C,2 | D,2 E,2 C,2 D,2 | E,3 E, D,2 C,2- | %32
w: ch'a gli\_oc- chi|san- * *|ti|e|s'io po- tes- si|far ch'a gli\_oc- chi|
 C,2"^ยง" B,,2 C,4 | z2 G,,2 G,,2 G,,2 | A,,2 _B,,2 G,,2 G,,2 | z2 G,,2 G,,2 G,,2 | %36
w: _ san- ti|por- ges- s'al-|cun di- let- to|qual- che dol-|
 A,,2 _B,,2 G,,2 G,,2 | z2 C,2 C,2 C,2 | C,4 C,2 D,2- | D,2 D,2 _B,,2 C,2 | F,,4 G,,2 C,2 | %41
w: ce mio det- to|O me be-|a- to so-|* pra gli\_al- tri\_a-|man- ti ma|
 _B,,2 A,,2 B,,2 G,,2 | F,,2 z C, D,2 _B,,2 | C,2 C,2 C,2 z C, | D,2 _B,,2 B,,2 A,,2 | _B,,4 G,,4 | %46
w: piu quan- d'io di-|ro, ma piu quan-|d'io di- ro, ma|piu quan- d'io di-||
 F,,2 F,2 F,2 E,2 | F,2 D,2 C,4 | A,,3 _B,, C,2 D,2- | D,2 C,2 _B,,4 | A,,2 C,2 _B,,2 A,,2 | %51
w: ro ma piu quan-|d'io di- ro|sen- * * za|_ men- ti-|re don- na mi|
 G,,2 F,,2 C,2 F,,G,, | A,,_B,, C,2 A,,2 A,,2 | _B,,3 A,, G,,4 | F,,2 C,2 _B,,2 A,,2 | %55
w: pre- ga per ch'io _|_ _ _ vo- glia|di- * *|re, don- na mi|
 G,,2 F,,2 C,2 F,,G,, | A,,_B,, C,2 A,,2 A,,2 | _B,,3 A,, G,,4- | G,,4 F,,2 A,,2- | %59
w: pre- ga per ch'io _|_ _ _ vo- glia|di- * *|* re, per|
 A,,2 _B,,2 B,,2 A,,2 | _B,,4 A,,4- | A,,8 |] %62
w: _ ch'io vo- glia|di- re.|_|
V:4
"^Bass" x8 |"^Instrument change" F,8 | D,4 _B,,4 | C,8 | z2 C,2 C,2 C,2 | F,6 E,2 | D,2 C,2 _B,,4 | %7
w: |Ra-|gio- n'e|ben|ch'al- cu- na|vol- t'io|can- * *|
 C,4 z2 C,2 | C,2 C,2 D,3 D, | C,2 C,2 z4 | z4 z _B,,2 B,, | C,C, A,,2 _B,,4 | C,4 F,,4- | F,,8 | %14
w: ti pe-|ro c'ho sos- pi-|ra- to|sos- pi-|ra- to si gran|tem- po|_|
 z8 | z8 | z8 | z8 | z8 | z8 | z4 C,4 | _B,,6 B,,2 | C,4 C,4 | z8 | z8 | z2 C,2 C,2 D,2 | %26
w: ||||||i|do- lor|tan- ti|||e s'io po-|
 _B,,2 C,2 D,3 C, | _B,,2 A,,2 B,,2 G,,2 | F,,2 F,2 G,2 A,2 | F,2 G,2 A,3 G, | F,2 E,2 F,2 D,2 | %31
w: tes- si far ch'a|gli\_oc- chi san- *|ti e s'io po-|tes- si far ch'a|gli\_oc- chi san- *|
 C,D,E,F, G,2 C,2 | D,4 C,4 | z2 C,2 G,2 E,2 | D,2 G,2 C,2 C,2 | z2 C,2 G,2 E,2 | D,2 G,2 C,2 C,2 | %37
w: |* ti|por- ges- s'al-|cun di- let- to|qual- che dol-|ce mio det- to|
 C,4 C,2 C,2 | F,4 C,2 _B,,2- | B,,2 D,2 _E,2 C,2 | D,4 C,4 | z4 z2 _B,2 | _B,2 A,2 B,2 G,2 | %43
w: O me be-|a- to so-|* pra gli\_al- tri\_a-|man- ti|ma|piu quan- d'io di-|
 F,4 z4 | z2 _B,,2 F,2 F,2 | _B,,4 z2 _B,2 | _B,2 A,2 B,2 G,2 | F,4 z2 C,2 | F,6 _B,,2 | F,4 G,4 | %50
w: ro,|quan- d'io di-|ro, ma|piu quan- d'io di-|ro, sen-|za men-|ti- *|
 F,2 F,2 G,2 A,2 | _B,2 C2 C,2 _B,,2 | F,2 C,2 D,2 F,2 | _B,,4 C,4 | z2 F,2 G,2 A,2 | %55
w: re don- na mi|pre- ga per ch'io|vo- glia di- *|* re,|don- na mi|
 _B,2 C2 C,2 _B,,2 | F,2 C,2 D,2 F,2 | _B,,4 C,4- | C,4 z2 D,2- | D,2 _B,,2 F,2 F,2 | _B,,4 F,4- | %61
w: pre- ga per ch'io|vo- glia di- *|* re|_ per|_ ch'io vo- glia|di- re.|
 F,8 |] %62
w: _|

